svg/eye_lock_outline.svg

<svg xmlns="http://www.w3.org/2000/svg" viewBox="0 0 24 24"><path d="M20.8 17v-1.5c0-1.4-1.4-2.5-2.8-2.5s-2.8 1.1-2.8 2.5V17c-.6 0-1.2.6-1.2 1.2v3.5c0 .7.6 1.3 1.2 1.3h5.5c.7 0 1.3-.6 1.3-1.2v-3.5c0-.7-.6-1.3-1.2-1.3m-1.3 0h-3v-1.5c0-.8.7-1.3 1.5-1.3s1.5.5 1.5 1.3zM15 12c-.9.7-1.5 1.6-1.7 2.7-.4.2-.8.3-1.3.3-1.7 0-3-1.3-3-3s1.3-3 3-3 3 1.3 3 3m-3 7.5c-5 0-9.3-3.1-11-7.5 1.7-4.4 6-7.5 11-7.5s9.3 3.1 11 7.5c-.2.5-.5 1-.7 1.5-.4-.7-.9-1.3-1.6-1.7-1.7-3.3-5-5.3-8.7-5.3-3.8 0-7.2 2.1-8.8 5.5 1.7 3.4 5.1 5.5 8.8 5.5h.1c-.1.2-.1.5-.1.7z"/></svg>

<svg xmlns="http://www.w3.org/2000/svg" id="mdi-eye-lock-outline" viewBox="0 0 24 24"><path d="M20.8 17V15.5C20.8 14.1 19.4 13 18 13S15.2 14.1 15.2 15.5V17C14.6 17 14 17.6 14 18.2V21.7C14 22.4 14.6 23 15.2 23H20.7C21.4 23 22 22.4 22 21.8V18.3C22 17.6 21.4 17 20.8 17M19.5 17H16.5V15.5C16.5 14.7 17.2 14.2 18 14.2S19.5 14.7 19.5 15.5V17M15 12C14.1 12.7 13.5 13.6 13.3 14.7C12.9 14.9 12.5 15 12 15C10.3 15 9 13.7 9 12S10.3 9 12 9 15 10.3 15 12M12 19.5C7 19.5 2.7 16.4 1 12C2.7 7.6 7 4.5 12 4.5S21.3 7.6 23 12C22.8 12.5 22.5 13 22.3 13.5C21.9 12.8 21.4 12.2 20.7 11.8C19 8.5 15.7 6.5 12 6.5C8.2 6.5 4.8 8.6 3.2 12C4.9 15.4 8.3 17.5 12 17.5H12.1C12 17.7 12 18 12 18.2V19.5Z" /></svg>
